X: 29941
T: O'Sullivan's March
R: jig
M: 6/8
K: Amajor
|:AcA Bce|fec B-B//c//B//A//E|AcB {B}c2B|{c}BAF AFE|
AcA Bce|fec B-B//c//B//A//E|AcB {B}c2B|1 {c}BAA {B}A3:|2 {c}BAA Ace||
|:f2a f2a|f-f/a/f fec|e-e/f/e ece|fac B-B//c//B/A|
d-d/c/d ece|fac B-B//c//B//A//E|AcB {B}c2B|1 {c}BAA Aag:|2 {c}BAA {B}A3||

